icons/trophy-24.svg

<svg width="24" height="24" viewBox="0 0 24 24" fill="none" xmlns="http://www.w3.org/2000/svg">
<path fill-rule="evenodd" clip-rule="evenodd" d="M5.08932 10.1213C2.74833 9.59296 1 7.50065 1 5V3.75C1 2.7835 1.7835 2 2.75 2H5.11427C5.34973 1.41386 5.92341 1 6.59375 1H17.4062C18.0766 1 18.6503 1.41386 18.8857 2H21.375C22.3415 2 23.125 2.7835 23.125 3.75V5C23.125 7.54655 21.3119 9.66962 18.9062 10.1488C18.483 12.7121 16.6672 14.8057 14.2619 15.6265L14.493 18.6296C14.5005 18.6378 14.5115 18.6484 14.5269 18.661C14.6059 18.7257 14.8303 18.8639 15.3627 18.9427C16.2007 19.0666 17 19.7539 17 20.75V21.5H19.25C19.6642 21.5 20 21.8358 20 22.25C20 22.6642 19.6642 23 19.25 23H4.75C4.33579 23 4 22.6642 4 22.25C4 21.8358 4.33579 21.5 4.75 21.5H7V20.75C7 19.7539 7.79926 19.0666 8.63733 18.9427C9.16974 18.8639 9.39409 18.7257 9.47313 18.661C9.48853 18.6484 9.49948 18.6378 9.50705 18.6296L9.73806 15.6265C7.32417 14.8027 5.50402 12.6971 5.08932 10.1213ZM5 3.5H2.75C2.61193 3.5 2.5 3.61193 2.5 3.75V5C2.5 6.63277 3.54351 8.02182 5 8.53662V3.5ZM11.2171 15.9567L11.0022 18.7501L11.0008 18.7713C11.0001 18.7813 10.999 18.7968 10.9976 18.8138C10.9947 18.8477 10.9892 18.9004 10.9763 18.9613C10.9264 19.1979 10.782 19.528 10.4235 19.8216C10.0754 20.1066 9.57023 20.321 8.85677 20.4265C8.74259 20.4434 8.64575 20.4967 8.5829 20.5618C8.52348 20.6232 8.5 20.6872 8.5 20.75V21.5H15.5V20.75C15.5 20.6872 15.4765 20.6232 15.4171 20.5618C15.3542 20.4967 15.2574 20.4434 15.1432 20.4265C14.4298 20.321 13.9246 20.1066 13.5765 19.8216C13.218 19.528 13.0736 19.1979 13.0237 18.9613C13.0108 18.9004 13.0053 18.8477 13.0024 18.8138C13.001 18.7968 12.9999 18.7813 12.9992 18.7713L12.9978 18.7501L12.7829 15.9567C12.5259 15.9853 12.2647 16 12 16C11.7353 16 11.4741 15.9853 11.2171 15.9567ZM19 8.57832V3.5H21.375C21.5131 3.5 21.625 3.61193 21.625 3.75V5C21.625 6.67912 20.5214 8.10048 19 8.57832ZM6.5 2.59375C6.5 2.54197 6.54197 2.5 6.59375 2.5H17.4062C17.458 2.5 17.5 2.54197 17.5 2.59375V9C17.5 12.0376 15.0376 14.5 12 14.5C8.96243 14.5 6.5 12.0376 6.5 9V2.59375Z" fill="black"/>
</svg>

<svg xmlns="http://www.w3.org/2000/svg" width="24" height="24" viewBox="0 0 24 24"><path fill-rule="evenodd" d="M5.09 10.121A5.252 5.252 0 011 5V3.75C1 2.784 1.784 2 2.75 2h2.364c.236-.586.81-1 1.48-1h10.812c.67 0 1.244.414 1.48 1h2.489c.966 0 1.75.784 1.75 1.75V5a5.252 5.252 0 01-4.219 5.149 7.01 7.01 0 01-4.644 5.478l.231 3.003a.326.326 0 00.034.031c.079.065.303.203.836.282.838.124 1.637.81 1.637 1.807v.75h2.25a.75.75 0 010 1.5H4.75a.75.75 0 010-1.5H7v-.75c0-.996.8-1.683 1.637-1.807.533-.08.757-.217.836-.282a.334.334 0 00.034-.031l.231-3.003A7.01 7.01 0 015.09 10.12zM5 3.5H2.75a.25.25 0 00-.25.25V5A3.752 3.752 0 005 8.537V3.5zm6.217 12.457l-.215 2.793-.001.021-.003.043a1.203 1.203 0 01-.022.147c-.05.237-.194.567-.553.86-.348.286-.853.5-1.566.605a.482.482 0 00-.274.136.265.265 0 00-.083.188v.75h7v-.75a.265.265 0 00-.083-.188.483.483 0 00-.274-.136c-.713-.105-1.218-.32-1.567-.604-.358-.294-.502-.624-.552-.86a1.203 1.203 0 01-.025-.19l-.001-.022-.215-2.793a7.076 7.076 0 01-1.566 0zM19 8.578V3.5h2.375a.25.25 0 01.25.25V5c0 1.68-1.104 3.1-2.625 3.578zM6.5 2.594c0-.052.042-.094.094-.094h10.812c.052 0 .094.042.094.094V9a5.5 5.5 0 11-11 0V2.594z"/></svg>
